src/utils/icons/main/topics/topic_4.svg

<svg width="80" height="80" viewBox="0 0 80 80" fill="none" xmlns="http://www.w3.org/2000/svg">
<path d="M66.8045 13.1956C74.2991 20.6902 73.5896 33.551 65.2967 41.8439L50.2186 56.9219L23.0781 29.7815L38.1562 14.7034C46.4491 6.41048 59.3099 5.70096 66.8045 13.1956Z" fill="#FFD11A"/>
<path d="M35.1405 72L8 44.8595C16.3274 36.5322 29.1537 35.8571 36.6483 43.3517C44.143 50.8464 43.4679 63.6726 35.1405 72Z" fill="#404040"/>
<path d="M63.7889 70.4922L36.6484 43.3517C44.9758 35.0243 57.8021 34.3493 65.2968 41.8439C72.7914 49.3386 72.1163 62.1648 63.7889 70.4922Z" fill="#FFD11A"/>
<path d="M36.6483 43.3517L9.50781 16.2112C17.8352 7.88384 30.6615 7.20878 38.1561 14.7034C45.6508 22.1981 44.9757 35.0243 36.6483 43.3517Z" fill="#FFD11A"/>
</svg>

<svg xmlns="http://www.w3.org/2000/svg" width="80" height="80" fill="none"><path fill="#FFD11A" d="M66.805 13.196c7.494 7.494 6.785 20.355-1.508 28.648L50.219 56.922l-27.14-27.14 15.077-15.079C46.45 6.41 59.31 5.701 66.805 13.196"/><path fill="#404040" d="M35.14 72 8 44.86c8.327-8.328 21.154-9.003 28.648-1.508 7.495 7.494 6.82 20.32-1.508 28.648"/><path fill="#FFD11A" d="m63.789 70.492-27.14-27.14c8.327-8.328 21.153-9.003 28.648-1.508 7.494 7.495 6.82 20.32-1.508 28.648M36.648 43.352l-27.14-27.14c8.327-8.328 21.154-9.003 28.648-1.509 7.495 7.495 6.82 20.321-1.508 28.649"/></svg>
